X:2
T:Retrograde
M:3/2
L:1/2
Q:1/2=100
K:Bb
%%MIDI gchord f2z2c2z2c2z2
%%MIDI program 1 41 % Viola
[K:bass]
"^Ground"
"Bb"zB,,2|F,(B,F,)|"Gm"G,(B,A,/<G,/)|"Bb"F,B,2|B,
w:I |I       |vi           |I
%
[K:treble]
"^Melody"
B2|(3(A/B/c/)(d/B/f/d/)|"Gm"(e/f/)(e/d/c/B/)|"Bb"(A/B/)(c/d/e/f/)|d(dc/<B/)|"Gm"(3(A/B/c/)(BA)|"Bb"B(dc/<B/)|F(FB)|d
(Bc/<d/)|(3(c/B/A/)(Bc)|"Gm"(3(d/c/B/)(fg)|"Bb"f(fe/<d/)|Bf2|"Gm"f(fe/<d/)|"Bb"B(Bc/<d/)|ff2|d
B2|F(BF)|"Gm"G(BA/<G/)|"Bb"B2F|B2B|c(de/<f/)|"Gm"e(dc/<B/)|"Bb"c(de/<d/)|B

